public/icons/tokens/busd.svg

<svg width="256" height="256" viewBox="0 0 256 256" fill="none" xmlns="http://www.w3.org/2000/svg">
  <path d="M128 256C198.692 256 256 198.692 256 128C256 57.3075 198.692 0 128 0C57.3075 0 0 57.3075 0 128C0 198.692 57.3075 256 128 256Z" fill="white"/>
  <path d="M127.981 10.9919L157.156 40.1739L83.9361 113.415L54.7541 84.2329L127.981 10.9919ZM54.8951 171.877L84.0701 201.059L201.076 84.0519L171.901 54.8699L54.8951 171.877ZM98.7731 215.755L127.973 245.007L244.982 127.999L215.807 98.8169L98.7731 215.755ZM69.3541 128L40.1721 98.8179L10.9951 127.999L40.1701 157.174L69.3541 128Z" fill="#F0B90B"/>
</svg>

<svg width="256" height="256" viewBox="0 0 256 256" fill="none" xmlns="http://www.w3.org/2000/svg"><path d="M128 256c70.692 0 128-57.308 128-128C256 57.308 198.692 0 128 0 57.308 0 0 57.307 0 128c0 70.692 57.307 128 128 128Z" fill="#fff"/><path d="m127.981 10.992 29.175 29.182-73.22 73.241-29.182-29.182 73.227-73.241ZM54.895 171.877l29.175 29.182L201.076 84.052 171.901 54.87 54.895 171.877Zm43.878 43.878 29.2 29.252 117.009-117.008-29.175-29.182L98.773 215.755ZM69.354 128 40.172 98.818l-29.177 29.181 29.175 29.175L69.354 128Z" fill="#F0B90B"/></svg>
